X: 130377
T: Muskerry Slide #1
C: S.O Driscoll
Z: B.Black
M: 12/8
L: 1/8
R: slide
K: G
D | E2 B BAB d2 B BAB | E2 B BAB A2 F D2 F | 
E2 B BAB d2 B BAB | A2 F D2 F E3 E2 :|
F | G2 B BAB F2 A AFA | G2 B BAB d2 B A2 F | 
E2 B BAB d2 B BAB | A2 F D2 F E3 E2 :|
